X: 1669
T: Annoying Dog, The
R: jig
M: 6/8
K: Gmajor
A|:~G3 AED|DFA DFA|~G3 fed|dcA dcA|
~G3 D2 c|~G3 DFA|fed dca|ge^c d2 A:|
|:~g3 dea|afd dfa|~E3 dea|dfa dcA|
~g3 d2 c|~g3 d2a|~g3 dea|1 ge^c d2 f:|2 ge^c d3||

